X: 1
T: Hartigan's Leaving
M: 4/4
L: 1/8
R: reel
K: Dmin
|:C|D2AD FDAD|EFED CDCG,|A,DDC DEFG|Addc AGFE|
D2AD FDAD|EFED C3G,|A,DDE FGAG|FDEC A,DD:|
|:G|Adde fdec|Acec fcec|Adde fdec|ABAG FEFG|
Adde fdec|Acec fcec|Addc ABAG|FAGE FDD:|
